X: 6
T: The Pretty Girl Milking Her Cow
R: waltz
M: 3/4
L: 1/8
K: Ddor
DE| F2 A3 F|E2 G3 E|D2 (C4|C6) DE|F2 A3 F| E2 G3 E| (D6|D4) DE|F2 A3 F|E2 c3 E |D2 (C4|C6)|A3 G FE|D A,3 DE|(D6|D4)|| DE|F3 G AB|c G3 FE| C4 DE| F3 GAB|c2 A2 (3ABc |d6|e3 d c2|G2 FE c2 |ED C4 |A2 GFED| A,2 D2 E2 |D4|


Tune 1758	Setting 23135

